X:185
T:Sir Sidney Smith
M:4/4
L:1/8
K:G
Bc | d2 dd d2 d2 | e2 d2 c2 B2 | dcBc A2 dc | BcAB G2 dc | 
BdBd AdAd | GdGd GFGA | Bcde d2 ^c2 | d6 :|| 
AG | FDFA dABc | B6 dc | BGBd gdef | e6 g2 | 
egeg dgdg | cgcg BgBg | egeg dgdg | cgcg BgBg | 
e2 d2 c2 B2 | e2 d2 c2 B2 | e2 d2 c2 B2 | B4 A2 Bc | 
d2 dd d2 d2 | e2 d2 c2 B2 | dcBc A2 dc | BcAB G2 dc | 
BdBd AdAd | GdGd FdFd | EdEd FdFd | GdGd AdAd | 
EdEd FdFd | GdGd AdAd | cedc B2 A2 | G6 || 

